!!!OTL: Zhuai da sheng hao(1)
!!!ARE: Asia, China,ÿHeilongjiang, Tieli
!! III, 82
!!!SCT: C1550
!!!YEM: Copyright 1995, estate of Helmut Schaffrath.
**kern
*ICvox
*Ivox
!! Mixed meters:  4/4; 3/4; 2/4
*M3/4
*k[f#]
*G:
{2b
16b
8.b
8.a
16a
8a
16a
16e
4g
=1
4b
4b
8b
16a
16e
4g}
=2
{8g
8b
4a
8g
16e
16g
4a
=3
8g
8e
8b
8a
8dd
8b
4a}
=4
{8b
8b
16dd
8dd
16b
8a
16a
16e
4g
=5
4b
4b
8b
8a
4g}
=6
{8b
8b
4b
8.b
16r
=7
*M2/4
4a
4b}
=8
*M3/4
{8a
16a
16g
4e
8g
8r
=9
*M2/4
4b
8a
8g}
=10
*M3/4
{8a
16a
16a
4a
8b
8r
=11
*M2/4
4a
4b}
=12
{8e
8g
=13
8a
8e
4g
=14
4b
8a
8g}
=15
{8g
16g
16g
=16
4b
8b
8r
=17
4a
4b}
=18
{4b
=19
8a
8e
8g
8r
=20
*M3/4
4b
8b
8a
4g}
=21
*M4/4
{4b
4a
8g
16e
16g
4a
=22
8g
8e
8b
8a
8dd
8b
4a}
=23
{16dd
8dd
16b
16b
8b
16b
8a
16a
16e
4g
=24
4b
4b
8b
16a
16b
4g}
==
!!!AGN: Haozi, Senglin haozi
!!!AMT: irregular
!!!AIN: vox
!!!EED: Helmut Schaffrath
!!!EEV: 1.0
*-
